src/assets/icons/shapes,simple,filled-hexagon.svg

<svg width="48" height="48" viewBox="0 0 48 48" fill="none" xmlns="http://www.w3.org/2000/svg">
<rect opacity="0.2" x="5" y="5" width="38" height="38" rx="4" fill="black"/>
<path d="M22 11.1547C22.9761 10.5912 23.4641 10.3094 24 10.3094C24.5359 10.3094 25.0239 10.5912 26 11.1547L34.1244 15.8453C35.1004 16.4088 35.5885 16.6906 35.8564 17.1547C36.1244 17.6188 36.1244 18.1823 36.1244 19.3094V28.6906C36.1244 29.8177 36.1244 30.3812 35.8564 30.8453C35.5885 31.3094 35.1004 31.5912 34.1244 32.1547L26 36.8453C25.0239 37.4088 24.5359 37.6906 24 37.6906C23.4641 37.6906 22.9761 37.4088 22 36.8453L13.8756 32.1547C12.8996 31.5912 12.4115 31.3094 12.1436 30.8453C11.8756 30.3812 11.8756 29.8177 11.8756 28.6906V19.3094C11.8756 18.1823 11.8756 17.6188 12.1436 17.1547C12.4115 16.6906 12.8996 16.4088 13.8756 15.8453L22 11.1547Z" fill="black"/>
</svg>

<svg xmlns="http://www.w3.org/2000/svg" width="48" height="48" fill="none" viewBox="0 0 48 48">
  <rect width="38" height="38" x="5" y="5" fill="#000" opacity=".2" rx="4"/>
  <path fill="#000" d="M22 11.155c.976-.564 1.464-.846 2-.846s1.024.282 2 .846l8.124 4.69c.976.564 1.465.846 1.732 1.31.268.464.268 1.027.268 2.154v9.382c0 1.127 0 1.69-.268 2.154-.267.464-.756.746-1.732 1.31L26 36.845c-.976.564-1.464.846-2 .846s-1.024-.282-2-.846l-8.124-4.69c-.976-.564-1.464-.846-1.732-1.31-.268-.464-.268-1.027-.268-2.154v-9.382c0-1.127 0-1.69.268-2.154.268-.464.756-.746 1.732-1.31L22 11.155z"/>
</svg>
